X:1
T:Village Maid, The
M:2/4
L:1/8
R:Country Dance Tune
B:Dale’s Selection of the most favorite Country Dances, Reels &c. (London,
B:c. 1800, pp. 2-3)
Z:AK/Fiddler’s Companion
K:G
G/F/G/A/ GB|AG G2|B/A/B/c/ Bd|cB B2|
Df/e/ da/f/|db/g/ db|c'agf|g2G2:|
bg ef/g/|af de/f/|ged^c|(d/^c/d/e/) dd|
bg ef/g/|af de/f/|ged^c|d2d2||
G/F/G/A/ GB|AG G2|B/A/B/c/ Bd|cB B2|
Df/e/ da/f/|db/g/ db|c'agf|g4||
d>e/2d/4 cB|ddcB|e>f/2e/4 dc|eedc|
d>e/2d/4 cB|ddcB|cAGF|G2 G,2||
Dd/^c/ d=c|Bgfg|Dd/^c/ d=c|Bgfg|ec'c'c'|
dbbb|(a/b/a/g/) (f/g/f/e/)|(d/e/d/c/) (B/c/B/A/)|d/e/d/ cB|
ddcB|e>f/2e/4 dc|eedc|d>e/2d/4 cB|ddcB|cAGF|G4||

